cy/printer-outline-badged.svg

<svg viewBox="0 0 36 36" xmlns="http://www.w3.org/2000/svg" height="1em" width="1em">
  <path d="M28 18H8a1 1 0 0 0 0 2h1v12h18V20h1a1 1 0 0 0 0-2Zm-3 12H11V20h14Z" class="clr-i-outline--badged clr-i-outline-path-1--badged"/>
  <path class="clr-i-outline--badged clr-i-outline-path-2--badged" d="M27 13.04h2v2h-2z"/>
  <path d="M33 12.88a7.45 7.45 0 0 1-2 .55v8.66h-1.92V24H33V12.88Z" class="clr-i-outline--badged clr-i-outline-path-3--badged"/>
  <path d="M5 13a2 2 0 0 1 2-2h17.42a7.5 7.5 0 0 1-1.27-2H11V7h11.57a7.52 7.52 0 0 1-.07-1 7.54 7.54 0 0 1 .07-1H9v4H7a4 4 0 0 0-4 4v11h3.92v-1.91H5Z" class="clr-i-outline--badged clr-i-outline-path-4--badged"/>
  <circle cx="30" cy="6" r="5" class="clr-i-outline--badged clr-i-outline-path-5--badged clr-i-badge"/>
  <path fill="none" d="M0 0h36v36H0z"/>
</svg>

<svg version="1.1" viewBox="0 0 36 36" preserveAspectRatio="xMidYMid meet" xmlns="http://www.w3.org/2000/svg" height="1em" width="1em">
  <path d="M28,18H8a1,1,0,0,0,0,2H9V32H27V20h1a1,1,0,0,0,0-2ZM25,30H11V20H25Z" class="clr-i-outline--badged clr-i-outline-path-1--badged"/>
  <rect x="27" y="13.04" width="2" height="2" class="clr-i-outline--badged clr-i-outline-path-2--badged"/>
  <path d="M33,12.88a7.45,7.45,0,0,1-2,.55v8.66H29.08V24H33V13C33,13,33,12.93,33,12.88Z" class="clr-i-outline--badged clr-i-outline-path-3--badged"/>
  <path d="M5,13a2,2,0,0,1,2-2H24.42a7.5,7.5,0,0,1-1.27-2H11V7H22.57a7.52,7.52,0,0,1-.07-1,7.54,7.54,0,0,1,.07-1H9V9H7a4,4,0,0,0-4,4V24H6.92V22.09H5Z" class="clr-i-outline--badged clr-i-outline-path-4--badged"/>
  <circle cx="30" cy="6" r="5" class="clr-i-outline--badged clr-i-outline-path-5--badged clr-i-badge"/>
  <rect x="0" y="0" width="36" height="36" fill-opacity="0"/>
</svg>
